X:4458
T:Mulhaire's
O:england
M:4/4
L:1/8
R:Reel
K:D
AG|F2 AF DFAF|G2 BG DGBG|A2 cA EAce|dcde fdAG|F2 AF DFAF|
G2 BG DGBG|A2 cA EAce|dcde d2:|
fg|a2 fd adfd|adfd edBd|~e3 f ~g3a|b~e3 efgb|a2 fd adfd|adfd edBd| A2
FA BcdB|AFEF D2:|


